X:1
T: Harry Glasgow
C:William Macpherson
R:Strathspey
Q: 128
K:G
M:4/4
L:1/16
D3C|:B,4 G,3G E4 E3E|D3G, B,G,3 A,4 D3C|B,4 G,3G E4 G3E|Dd3 DF3 G4 DCB,A,|
B,4 G,3G E4 E3E|D3G, B,G,3 A,4 D3C|B,4 G,3G E4 G3E|D3B cF3 G4 ^cdef|
g4 Bg3 c4 gedc|B4 G,B,DG A,4 DCB,A,|B,4 G,3G E4 C3E|DG,3 A,D3 G8|
g4 Bg3 c4 gedc|B4 G,B,DG A,4 DCB,A,|B,4 G,3G E4 C3E|DG,3 A,D3 G8:|
